flaticon/medical/ointment.svg

<svg xmlns="http://www.w3.org/2000/svg" width="32" height="32" viewBox="0 0 24 24">
    <path d="M 23.847656 16.527344 L 17.636719 11.390625 L 12.757812 7.351562 L 6.546875 2.21875 C 6.378906 2.078125 6.136719 2.089844 5.980469 2.242188 L 5.84375 2.378906 L 2.140625 0.0625 C 1.972656 -0.0390625 1.757812 -0.015625 1.617188 0.125 L 0.125 1.617188 C -0.015625 1.757812 -0.0390625 1.972656 0.0625 2.140625 L 2.378906 5.84375 L 2.242188 5.980469 C 2.089844 6.136719 2.078125 6.378906 2.21875 6.546875 L 16.527344 23.847656 C 16.601562 23.9375 16.710938 23.992188 16.832031 24 C 16.835938 24 16.84375 24 16.851562 24 C 16.960938 24 17.070312 23.957031 17.148438 23.875 L 23.878906 17.148438 C 23.960938 17.0625 24.003906 16.949219 24 16.832031 C 23.992188 16.710938 23.9375 16.601562 23.847656 16.527344 Z M 16.742188 11.742188 L 13.957031 14.53125 L 10.09375 10.667969 L 12.515625 8.246094 Z M 1.976562 0.957031 L 3.738281 2.058594 L 2.054688 3.738281 L 0.957031 1.976562 Z M 2.515625 4.472656 L 4.472656 2.515625 L 5.234375 2.992188 L 2.992188 5.234375 Z M 6.304688 3.109375 L 11.863281 7.707031 L 9.203125 10.371094 C 9.035156 10.535156 9.035156 10.800781 9.203125 10.964844 L 13.660156 15.421875 C 13.742188 15.503906 13.847656 15.546875 13.957031 15.546875 C 14.0625 15.546875 14.171875 15.503906 14.253906 15.421875 L 17.394531 12.28125 L 20.734375 15.042969 L 20.132812 15.644531 L 20.132812 15.648438 L 15.046875 20.734375 L 3.109375 6.304688 Z M 21.335938 18.496094 L 19.90625 17.066406 L 20.429688 16.539062 L 21.863281 17.972656 Z M 20.214844 19.617188 L 18.785156 18.1875 L 19.308594 17.664062 L 20.742188 19.09375 Z M 19.09375 20.742188 L 17.664062 19.308594 L 18.1875 18.785156 L 19.617188 20.214844 Z M 17.972656 21.863281 L 16.539062 20.429688 L 17.066406 19.90625 L 18.496094 21.335938 Z M 16.878906 22.953125 L 15.585938 21.386719 L 15.945312 21.027344 L 17.375 22.457031 Z M 22.457031 17.375 L 21.027344 15.945312 L 21.386719 15.585938 L 22.953125 16.878906 Z M 22.457031 17.375"/>
</svg>

<svg xmlns="http://www.w3.org/2000/svg" width="32" height="32" viewBox="0 0 24 24">
    <path d="M23.848 16.527l-6.211-5.136-4.88-4.04-6.21-5.132a.42.42 0 0 0-.567.023l-.136.137L2.14.062a.426.426 0 0 0-.524.063L.125 1.617a.426.426 0 0 0-.063.524L2.38 5.844l-.137.136a.42.42 0 0 0-.023.567l14.308 17.3c.075.09.184.145.305.153h.02a.41.41 0 0 0 .296-.125l6.73-6.727a.436.436 0 0 0 .122-.316.428.428 0 0 0-.152-.305zm-7.106-4.785l-2.785 2.79-3.863-3.864 2.422-2.422zM1.977.957l1.761 1.102-1.683 1.68L.957 1.976zm.539 3.516l1.957-1.957.761.476-2.242 2.242zm3.789-1.364l5.558 4.598-2.66 2.664a.413.413 0 0 0 0 .594l4.457 4.457a.417.417 0 0 0 .594 0l3.14-3.14 3.34 2.761-.601.602v.003l-5.086 5.086L3.109 6.304zm15.03 15.387l-1.429-1.43.524-.527 1.433 1.434zm-1.12 1.121l-1.43-1.43.524-.523 1.433 1.43zm-1.121 1.125l-1.43-1.433.523-.524 1.43 1.43zm-1.121 1.121l-1.434-1.433.527-.524 1.43 1.43zm-1.094 1.09l-1.293-1.566.36-.36 1.429 1.43zm5.578-5.578l-1.43-1.43.36-.36 1.566 1.294zm0 0"/>
</svg>
